src/assets/icons/usability-test.svg

<?xml version="1.0" encoding="UTF-8"?>
<svg width="67px" height="59px" viewBox="0 0 67 59" version="1.1" xmlns="http://www.w3.org/2000/svg" xmlns:xlink="http://www.w3.org/1999/xlink">
    <!-- Generator: Sketch 48.2 (47327) - http://www.bohemiancoding.com/sketch -->
    <title>Group 5</title>
    <desc>Created with Sketch.</desc>
    <defs></defs>
    <g id="Page-1" stroke="none" stroke-width="1" fill="none" fill-rule="evenodd">
        <g id="Group-5" transform="translate(-12.000000, -16.000000)">
            <rect id="Rectangle-Copy-4" x="0" y="0" width="90" height="90"></rect>
            <g id="noun_986434_cc" transform="translate(12.000000, 16.000000)" fill="#000000" fill-rule="nonzero">
                <g id="Group">
                    <rect id="Rectangle-path" x="34.4" y="15.9" width="1.5" height="4.2"></rect>
                    <rect id="Rectangle-path" transform="translate(29.301145, 20.360475) rotate(-135.000000) translate(-29.301145, -20.360475) " x="27.2011651" y="19.6104822" width="4.19995972" height="1.49998561"></rect>
                    <rect id="Rectangle-path" x="24.9" y="25.4" width="4.2" height="1.5"></rect>
                    <rect id="Rectangle-path" x="41.3" y="25.5" width="4.2" height="1.5"></rect>
                    <rect id="Rectangle-path" transform="translate(40.966220, 20.347450) rotate(-45.008103) translate(-40.966220, -20.347450) " x="38.8662401" y="19.5974572" width="4.19995976" height="1.49998563"></rect>
                    <path d="M61.5,0.8 L5.5,0.8 C2.9,0.8 0.8,3 0.8,5.6 L0.8,40 C0.8,42.6 2.9,44.8 5.5,44.8 L28.2,44.8 C28.3,46.8 29.3,48.6 30.9,49.7 C31.8,50.3 32.4,51.4 32.4,52.5 L32.4,53.6 C32.3,53.7 32.3,53.7 32.2,53.8 C31.8,54.3 31.5,54.9 31.6,55.6 C31.6,56.3 31.7,56.6 31.7,56.9 C31.7,57.2 31.8,57.4 31.8,58.3 L33.3,58.3 C33.3,57.3 33.3,57.1 33.2,56.7 C33.2,56.5 33.1,56.2 33.1,55.5 C33.1,55.2 33.2,55 33.3,54.8 C33.4,54.7 33.5,54.6 33.7,54.6 L46.5,54.6 C46.6,54.6 46.8,54.7 46.9,54.8 C47.1,55 47.1,55.2 47.1,55.5 C47,56.4 47,56.6 47,56.6 C46.9,56.8 46.9,57 46.9,58.2 L48.4,58.2 C48.4,57.9 48.4,57.2 48.4,57.1 C48.5,56.9 48.5,56.7 48.6,55.5 C48.6,54.9 48.4,54.3 48.1,53.8 C48.1,53.4 48.2,52.2 48.6,51.5 C48.7,51.3 48.8,51.1 48.9,50.9 C49.5,50 50.1,48.9 50.6,46.8 C50.7,46.2 50.8,45.5 50.8,44.7 L61.5,44.7 C64.1,44.7 66.3,42.6 66.3,39.9 L66.3,5.6 C66.3,3 64.1,0.8 61.5,0.8 Z M49.1,46.4 C48.7,48.3 48.1,49.2 47.6,50.1 C47.5,50.3 47.4,50.5 47.2,50.7 C46.8,51.4 46.6,52.4 46.6,53 C46.6,53 46.5,53 46.5,53 L33.9,53 L33.9,52.4 C33.9,50.8 33.1,49.3 31.8,48.4 C30.5,47.5 29.7,46 29.7,44.4 L29.7,38.9 L29.7,38.8 C29.7,38.1 30.3,37.4 31.1,37.4 C31.8,37.4 32.5,38 32.5,38.8 L32.5,42 L34,42 L34,38.8 C34,38.6 34,38.5 34,38.3 L34,25.9 C34,25.2 34.6,24.5 35.4,24.5 C36.1,24.5 36.8,25.1 36.8,25.9 L36.8,31.5 L36.8,36.2 L36.8,38.2 L38.3,38.2 L38.3,36.2 L38.3,31.5 C38.3,30.8 38.9,30.1 39.7,30.1 C40.4,30.1 41.1,30.7 41.1,31.5 L41.1,32.4 L41.1,36.2 L41.1,38 L42.6,38 L42.6,36.3 L42.6,32.5 C42.6,31.8 43.2,31.1 44,31.1 C44.7,31.1 45.4,31.7 45.4,32.5 L45.4,34.4 L45.4,38 L45.4,39.3 L46.9,39.3 L46.9,38 L46.9,34.3 C46.9,33.6 47.5,32.9 48.3,32.9 C49,32.9 49.7,33.5 49.7,34.3 L49.7,39.3 L49.8,39.3 L49.7,39.3 C49.2,39.4 49.6,44.3 49.1,46.4 Z M47.8,31.5 C47.3,31.5 46.8,31.6 46.4,31.9 C46.1,30.6 45,29.6 43.6,29.6 C43,29.6 42.4,29.8 41.9,30.2 C41.4,29.3 40.5,28.7 39.4,28.7 C38.9,28.7 38.5,28.8 38,29.1 L38,26 C38,24.4 36.7,23.1 35.1,23.1 C33.5,23.1 32.2,24.4 32.2,26 L32.2,36.3 C32,36 31.5,35.8 31,35.8 C29.7,35.8 28.6,36.7 28.3,37.9 L7.7,37.9 L7.7,7.6 L56.7,7.6 L56.7,37.9 L50.7,37.9 L50.7,34.3 C50.7,32.7 49.4,31.5 47.8,31.5 Z M64.8,39.9 C64.8,41.7 63.3,43.2 61.5,43.2 L50.8,43.2 C50.8,41.6 50.7,40 50.7,39.4 L58.2,39.4 L58.2,6.1 L6.2,6.1 L6.2,39.4 L28.2,39.4 L28.2,43.2 L5.5,43.2 C3.7,43.2 2.3,41.7 2.3,39.9 L2.3,5.6 C2.3,3.8 3.8,2.3 5.5,2.3 L61.5,2.3 C63.3,2.3 64.8,3.8 64.8,5.6 L64.8,39.9 Z" id="Shape"></path>
                    <path d="M61.4,20.4 C60.1,20.4 59,21.5 59,22.8 C59,24.1 60.1,25.2 61.4,25.2 C62.7,25.2 63.8,24.1 63.8,22.8 C63.8,21.5 62.7,20.4 61.4,20.4 Z M61.4,23.6 C60.9,23.6 60.5,23.2 60.5,22.7 C60.5,22.2 60.9,21.8 61.4,21.8 C61.9,21.8 62.3,22.2 62.3,22.7 C62.3,23.3 61.9,23.6 61.4,23.6 Z" id="Shape"></path>
                </g>
            </g>
            <g id="noun_876100_cc" transform="translate(5.000000, 35.000000)">
                <g id="Group-3" transform="translate(20.146447, 20.646447) scale(-1, 1) rotate(-45.000000) translate(-20.146447, -20.646447) translate(6.146447, 6.646447)">
                    <g id="Group-2" transform="translate(0.843750, 0.000000)">
                        <path d="M3.57190101,25.4377143 C4.21314387,25.9956248 5.02715494,26.3030303 5.86480798,26.3030303 C6.81739735,26.3030303 7.71542833,25.9204733 8.39304345,25.2251429 C8.40795607,25.2097547 8.42214125,25.1932929 8.43523526,25.1761154 C8.48797503,25.1074055 8.54253342,25.0351169 8.59672808,24.9599654 C10.0330684,25.4785108 11.5319691,25.7411833 13.0581489,25.7411833 C18.4230566,25.7411833 23.187822,22.5719365 25.1959342,17.6674055 C26.504608,14.4952958 26.4747827,11.0068341 25.112278,7.84546032 C23.7435901,4.67048773 21.1978959,2.21160173 17.9436702,0.921500722 C16.3956671,0.310268398 14.7654626,0 13.0981584,0 C7.70342549,0 2.94375216,3.14526984 0.973103373,8.01007792 C-0.845873113,12.4178932 -0.0776910814,17.3743146 2.96703041,21.0492237 C2.01916943,22.4724502 2.2508607,24.3294084 3.57190101,25.4377143 Z M1.96497477,8.40229726 C3.77413075,3.93722367 8.14425722,1.05212121 13.0981584,1.05212121 C14.6283392,1.05212121 16.1246937,1.33698124 17.5450303,1.89775469 C20.5333748,3.08228571 22.8713834,5.34005195 24.1280448,8.25593074 C25.3788867,11.1582107 25.4068933,14.3607388 24.205154,17.2733968 C22.3603532,21.7778355 17.9847709,24.6887042 13.0585126,24.6887042 C11.5210574,24.6887042 10.0145186,24.3984762 8.57926939,23.8255354 C8.32066266,23.7224704 8.02568367,23.8323348 7.90056311,24.0767561 C7.8310921,24.2134603 7.71506461,24.3676999 7.600492,24.5187186 C7.12874385,24.9907417 6.51405274,25.2509091 5.86517171,25.2509091 C5.28903518,25.2509091 4.72635639,25.0369062 4.27352182,24.6428975 C3.2845602,23.8144416 3.18999233,22.3758268 4.0571069,21.3687965 C4.22769277,21.1701818 4.22587416,20.879596 4.0523785,20.6831284 C1.04330183,17.2801962 0.242748487,12.5757114 1.96497477,8.40229726 Z" id="Shape" fill="#000000" fill-rule="nonzero"></path>
                        <path d="M1.96497477,8.40229726 C3.77413075,3.93722367 8.14425722,1.05212121 13.0981584,1.05212121 C14.6283392,1.05212121 16.1246937,1.33698124 17.5450303,1.89775469 C20.5333748,3.08228571 22.8713834,5.34005195 24.1280448,8.25593074 C25.3788867,11.1582107 25.4068933,14.3607388 24.205154,17.2733968 C22.3603532,21.7778355 17.9847709,24.6887042 13.0585126,24.6887042 C11.5210574,24.6887042 10.0145186,24.3984762 8.57926939,23.8255354 C8.32066266,23.7224704 8.02568367,23.8323348 7.90056311,24.0767561 C7.8310921,24.2134603 7.71506461,24.3676999 7.600492,24.5187186 C7.12874385,24.9907417 6.51405274,25.2509091 5.86517171,25.2509091 C5.28903518,25.2509091 4.72635639,25.0369062 4.27352182,24.6428975 C3.2845602,23.8144416 3.18999233,22.3758268 4.0571069,21.3687965 C4.22769277,21.1701818 4.22587416,20.879596 4.0523785,20.6831284 C1.04330183,17.2801962 0.242748487,12.5757114 1.96497477,8.40229726 Z" id="Path" stroke="#000000" fill="#FFFFFF"></path>
                    </g>
                    <path d="M4.21875,26.3216218 C4.21875,25.359396 3.28175094,24.6060606 2.08514227,24.6060606 C0.954657026,24.6060606 0,25.3917423 0,26.3216218 C0,27.2469669 0.93549626,28 2.08514227,28 C3.28175094,28 4.21875,27.2626865 4.21875,26.3216218 Z M1.10493755,26.3216218 C1.10493755,25.8811685 1.56329315,25.4951294 2.08514227,25.4951294 C2.67198771,25.4951294 3.11418815,25.850636 3.11418815,26.3216218 C3.11418815,26.7793064 2.68138024,27.1109312 2.08514227,27.1109312 C1.55352491,27.1109312 1.10493755,26.7496808 1.10493755,26.3216218 Z" id="Shape" fill="#000000" fill-rule="nonzero"></path>
                </g>
                <g id="Group-4" transform="translate(13.000000, 18.000000)" stroke="#000000">
                    <circle id="Oval" cx="14" cy="2" r="2"></circle>
                    <circle id="Oval-Copy" transform="translate(8.000000, 2.000000) scale(-1, 1) translate(-8.000000, -2.000000) " cx="8" cy="2" r="2"></circle>
                    <circle id="Oval-Copy-2" transform="translate(2.000000, 2.000000) scale(-1, 1) translate(-2.000000, -2.000000) " cx="2" cy="2" r="2"></circle>
                </g>
            </g>
        </g>
    </g>
</svg>

<?xml version="1.0" encoding="utf-8"?>
<!-- Generator: Adobe Illustrator 21.0.0, SVG Export Plug-In . SVG Version: 6.00 Build 0)  -->
<svg version="1.1" id="Layer_1" xmlns="http://www.w3.org/2000/svg" xmlns:xlink="http://www.w3.org/1999/xlink" x="0px" y="0px"
	 viewBox="0 0 67 59" style="enable-background:new 0 0 67 59;" xml:space="preserve">
<style type="text/css">
	.st0{fill:none;}
	.st1{fill:#FFFFFF;}
	.st2{fill:none;stroke:#FFFFFF;}
</style>
<title>Group 5</title>
<desc>Created with Sketch.</desc>
<g id="Page-1">
	<g id="Group-5" transform="translate(-12.000000, -16.000000)">
		<rect id="Rectangle-Copy-4" class="st0" width="90" height="90"/>
		<g id="noun_986434_cc" transform="translate(12.000000, 16.000000)">
			<g id="Group">
				<rect id="Rectangle-path" x="34.4" y="15.9" class="st1" width="1.5" height="4.2"/>
				
					<rect id="Rectangle-path_1_" x="28.6" y="18.3" transform="matrix(0.7071 -0.7071 0.7071 0.7071 -5.8149 26.6825)" class="st1" width="1.5" height="4.2"/>
				<rect id="Rectangle-path_2_" x="24.9" y="25.4" class="st1" width="4.2" height="1.5"/>
				<rect id="Rectangle-path_3_" x="41.3" y="25.5" class="st1" width="4.2" height="1.5"/>
				
					<rect id="Rectangle-path_4_" x="38.9" y="19.6" transform="matrix(0.707 -0.7072 0.7072 0.707 -2.387 34.9333)" class="st1" width="4.2" height="1.5"/>
				<path class="st1" d="M61.5,0.8h-56C2.9,0.8,0.8,3,0.8,5.6V40c0,1.6,0.8,3,2,3.9c-0.7-2.1-1.8-4.3-0.5-6.4c0,0,0,0,0,0V5.6
					c0-1.8,1.5-3.3,3.2-3.3h56c1.8,0,3.3,1.5,3.3,3.3v34.3c0,1.8-1.5,3.3-3.3,3.3H50.8c0-1.6-0.1-3.2-0.1-3.8h7.5V6.1h-52v23.5
					c0.5-0.3,1-0.6,1.5-0.8V7.6h49v30.3h-6v-3.6c0-1.6-1.3-2.8-2.9-2.8c-0.5,0-1,0.1-1.4,0.4c-0.3-1.3-1.4-2.3-2.8-2.3
					c-0.6,0-1.2,0.2-1.7,0.6c-0.5-0.9-1.4-1.5-2.5-1.5c-0.5,0-0.9,0.1-1.4,0.4V26c0-1.6-1.3-2.9-2.9-2.9c-1.6,0-2.9,1.3-2.9,2.9
					v10.3C32,36,31.5,35.8,31,35.8c-1.3,0-2.4,0.9-2.7,2.1h-2.1c0.1,0.5,0.1,1,0.1,1.5h1.9v3.8h-2.7c-0.3,0.4-0.5,1-0.7,1.6h3.4
					c0.1,2,1.1,3.8,2.7,4.9c0.9,0.6,1.5,1.7,1.5,2.8v1.1c-0.1,0.1-0.1,0.1-0.2,0.2c-0.4,0.5-0.7,1.1-0.6,1.8c0,0.7,0.1,1,0.1,1.3
					c0,0.3,0.1,0.5,0.1,1.4h1.5c0-1,0-1.2-0.1-1.6c0-0.2-0.1-0.5-0.1-1.2c0-0.3,0.1-0.5,0.2-0.7c0.1-0.1,0.2-0.2,0.4-0.2h12.8
					c0.1,0,0.3,0.1,0.4,0.2c0.2,0.2,0.2,0.4,0.2,0.7C47,56.4,47,56.6,47,56.6c-0.1,0.2-0.1,0.4-0.1,1.6h1.5v-1.1
					c0.1-0.2,0.1-0.4,0.2-1.6c0-0.6-0.2-1.2-0.5-1.7c0-0.4,0.1-1.6,0.5-2.3c0.1-0.2,0.2-0.4,0.3-0.6c0.6-0.9,1.2-2,1.7-4.1
					c0.1-0.6,0.2-1.3,0.2-2.1h10.7c2.6,0,4.8-2.1,4.8-4.8V5.6C66.3,3,64.1,0.8,61.5,0.8z M49.7,39.3c-0.5,0.1-0.1,5-0.6,7.1
					c-0.4,1.9-1,2.8-1.5,3.7c-0.1,0.2-0.2,0.4-0.4,0.6c-0.4,0.7-0.6,1.7-0.6,2.3H33.9v-0.6c0-1.6-0.8-3.1-2.1-4
					c-1.3-0.9-2.1-2.4-2.1-4v-5.6c0-0.7,0.6-1.4,1.4-1.4c0.7,0,1.4,0.6,1.4,1.4V42H34V25.9c0-0.7,0.6-1.4,1.4-1.4
					c0.7,0,1.4,0.6,1.4,1.4v12.3h1.5v-6.7c0-0.7,0.6-1.4,1.4-1.4c0.7,0,1.4,0.6,1.4,1.4V38h1.5v-5.5c0-0.7,0.6-1.4,1.4-1.4
					c0.7,0,1.4,0.6,1.4,1.4v6.8h1.5v-5c0-0.7,0.6-1.4,1.4-1.4c0.7,0,1.4,0.6,1.4,1.4V39.3z"/>
				<path id="Shape_1_" class="st1" d="M61.4,20.4c-1.3,0-2.4,1.1-2.4,2.4c0,1.3,1.1,2.4,2.4,2.4c1.3,0,2.4-1.1,2.4-2.4
					C63.8,21.5,62.7,20.4,61.4,20.4z M61.4,23.6c-0.5,0-0.9-0.4-0.9-0.9s0.4-0.9,0.9-0.9s0.9,0.4,0.9,0.9
					C62.3,23.3,61.9,23.6,61.4,23.6z"/>
			</g>
		</g>
		<g id="noun_876100_cc" transform="translate(5.000000, 35.000000)">
			
				<g id="Group-3" transform="translate(20.146447, 20.646447) scale(-1, 1) rotate(-45.000000) translate(-20.146447, -20.646447) translate(6.146447, 6.646447)">
				<g id="Group-2" transform="translate(0.843750, 0.000000)">
					<path id="Shape_2_" class="st1" d="M3.6,25.4C4.2,26,5,26.3,5.9,26.3c1,0,1.9-0.4,2.5-1.1c0,0,0,0,0,0C8.5,25.1,8.5,25,8.6,25
						c1.4,0.5,2.9,0.8,4.5,0.8c5.4,0,10.1-3.2,12.1-8.1c1.3-3.2,1.3-6.7-0.1-9.8c-1.4-3.2-3.9-5.6-7.2-6.9C16.4,0.3,14.8,0,13.1,0
						C7.7,0,2.9,3.1,1,8c-1.8,4.4-1.1,9.4,2,13C2,22.5,2.3,24.3,3.6,25.4z M2,8.4c1.8-4.5,6.2-7.4,11.1-7.4c1.5,0,3,0.3,4.4,0.8
						c3,1.2,5.3,3.4,6.6,6.4c1.3,2.9,1.3,6.1,0.1,9c-1.8,4.5-6.2,7.4-11.1,7.4c-1.5,0-3-0.3-4.5-0.9c-0.3-0.1-0.6,0-0.7,0.3
						c-0.1,0.1-0.2,0.3-0.3,0.4c-0.5,0.5-1.1,0.7-1.7,0.7c-0.6,0-1.1-0.2-1.6-0.6c-1-0.8-1.1-2.3-0.2-3.3c0.2-0.2,0.2-0.5,0-0.7
						C1,17.3,0.2,12.6,2,8.4z"/>
					<path id="Path" class="st2" d="M2,8.4c1.8-4.5,6.2-7.4,11.1-7.4c1.5,0,3,0.3,4.4,0.8c3,1.2,5.3,3.4,6.6,6.4
						c1.3,2.9,1.3,6.1,0.1,9c-1.8,4.5-6.2,7.4-11.1,7.4c-1.5,0-3-0.3-4.5-0.9c-0.3-0.1-0.6,0-0.7,0.3c-0.1,0.1-0.2,0.3-0.3,0.4
						c-0.5,0.5-1.1,0.7-1.7,0.7c-0.6,0-1.1-0.2-1.6-0.6c-1-0.8-1.1-2.3-0.2-3.3c0.2-0.2,0.2-0.5,0-0.7C1,17.3,0.2,12.6,2,8.4z"/>
				</g>
				<path id="Shape_3_" class="st1" d="M4.2,26.3c0-1-0.9-1.7-2.1-1.7C1,24.6,0,25.4,0,26.3C0,27.2,0.9,28,2.1,28
					C3.3,28,4.2,27.3,4.2,26.3z M1.1,26.3c0-0.4,0.5-0.8,1-0.8c0.6,0,1,0.4,1,0.8c0,0.5-0.4,0.8-1,0.8C1.6,27.1,1.1,26.7,1.1,26.3z"
					/>
			</g>
			<g id="Group-4" transform="translate(13.000000, 18.000000)">
				<circle id="Oval" class="st2" cx="14" cy="2" r="2"/>
				<circle id="Oval-Copy" class="st2" cx="8" cy="2" r="2"/>
				<circle id="Oval-Copy-2" class="st2" cx="2" cy="2" r="2"/>
			</g>
		</g>
	</g>
</g>
</svg>
